multimedia/favicon.svg

<svg xmlns="http://www.w3.org/2000/svg" width="500" height="500" fill="none"><rect width="500" height="500" fill="#1D54C0" rx="83"/><path fill="#A0C3EA" d="M246.307 421.853a2.81 2.81 0 0 1-2.813 2.776h-6.778a2.81 2.81 0 0 1-2.813-2.776V205.47h-84.119a2.815 2.815 0 0 1-2.813-2.81v-6.773a2.81 2.81 0 0 1 2.813-2.81h96.523zM246.307 174.622v11.039h-63.411a2.815 2.815 0 0 1-2.813-2.811v-6.772a2.814 2.814 0 0 1 2.813-2.811h50.837v-62.002a2.807 2.807 0 0 1 2.813-2.811h6.779a2.815 2.815 0 0 1 2.813 2.811zM319.919 202.66a2.81 2.81 0 0 1-2.813 2.81h-50.837v183.265a2.82 2.82 0 0 1-.824 1.987 2.8 2.8 0 0 1-.912.61 2.8 2.8 0 0 1-1.077.213h-6.778c-.369 0-.735-.072-1.077-.213a2.83 2.83 0 0 1-1.522-1.521 2.8 2.8 0 0 1-.214-1.076V193.043h63.241a2.811 2.811 0 0 1 2.813 2.811zM353.031 182.715a2.81 2.81 0 0 1-2.813 2.81h-96.489V78.181a2.81 2.81 0 0 1 2.813-2.81h6.779a2.81 2.81 0 0 1 2.813 2.81v95.052h84.084a2.82 2.82 0 0 1 1.99.824 2.8 2.8 0 0 1 .823 1.987z"/></svg>

<svg width="500" height="500" viewBox="0 0 500 500" fill="none" xmlns="http://www.w3.org/2000/svg">
<rect width="500" height="500" rx="83" fill="#1D54C0"/>
<path d="M246.307 421.853C246.298 422.592 245.998 423.298 245.471 423.818C244.945 424.338 244.234 424.629 243.494 424.629H236.716C235.976 424.629 235.265 424.338 234.739 423.818C234.212 423.298 233.912 422.592 233.903 421.853V205.47H149.784C149.038 205.47 148.323 205.174 147.795 204.647C147.268 204.12 146.971 203.405 146.971 202.66V195.887C146.971 195.142 147.268 194.427 147.795 193.9C148.323 193.373 149.038 193.077 149.784 193.077H246.307V421.853Z" fill="#A0C3EA"/>
<path d="M246.307 174.622V185.661H182.896C182.15 185.661 181.435 185.365 180.907 184.838C180.38 184.311 180.083 183.596 180.083 182.85V176.078C180.083 175.332 180.38 174.618 180.907 174.09C181.435 173.563 182.15 173.267 182.896 173.267H233.733V111.265C233.733 110.896 233.806 110.53 233.948 110.189C234.089 109.848 234.296 109.538 234.557 109.277C234.819 109.016 235.129 108.809 235.47 108.668C235.811 108.527 236.177 108.454 236.546 108.454H243.325C244.071 108.454 244.786 108.75 245.314 109.277C245.841 109.804 246.138 110.519 246.138 111.265L246.307 174.622Z" fill="#A0C3EA"/>
<path d="M319.919 202.66C319.919 203.405 319.623 204.12 319.096 204.647C318.568 205.174 317.853 205.47 317.106 205.47H266.269V388.735C266.269 389.104 266.196 389.47 266.055 389.811C265.914 390.152 265.707 390.461 265.445 390.722C265.184 390.983 264.874 391.19 264.533 391.332C264.191 391.473 263.826 391.545 263.456 391.545H256.678C256.309 391.545 255.943 391.473 255.601 391.332C255.26 391.19 254.95 390.983 254.689 390.722C254.428 390.461 254.22 390.152 254.079 389.811C253.938 389.47 253.865 389.104 253.865 388.735V193.043H317.106C317.853 193.043 318.568 193.339 319.096 193.866C319.623 194.393 319.919 195.108 319.919 195.854V202.66Z" fill="#A0C3EA"/>
<path d="M353.031 182.715C353.031 183.46 352.735 184.175 352.208 184.702C351.68 185.229 350.965 185.525 350.218 185.525H253.729V78.1809C253.729 77.4355 254.026 76.7205 254.553 76.1935C255.081 75.6664 255.796 75.3702 256.542 75.3702H263.321C263.69 75.3702 264.056 75.4429 264.397 75.5842C264.738 75.7254 265.049 75.9325 265.31 76.1935C265.571 76.4544 265.778 76.7643 265.92 77.1053C266.061 77.4463 266.134 77.8118 266.134 78.1809V173.233H350.218C350.588 173.233 350.954 173.306 351.295 173.447C351.636 173.588 351.946 173.796 352.208 174.057C352.469 174.318 352.676 174.627 352.817 174.968C352.959 175.309 353.031 175.675 353.031 176.044V182.715Z" fill="#A0C3EA"/>
</svg>
